X:1
T:All Things Bright and Beautiful
T:All Things Bright and Beautiful
T:William Henry Monk (1823-1889)
T:Public Domain Courtesy of the Cyber Hymnal™
C:William Henry Monk (1823-1889)
Z:Public Domain
Z:Courtesy of the Cyber Hymnal™
%%score ( 1 2 ) ( 3 4 )
L:1/8
Q:1/4=115
M:4/4
K:D
V:1 treble 
V:2 treble 
V:3 bass 
V:4 bass 
V:1
 [Fd]2 [DF]2 [DG]2 [GB]2 | [FA]3 [DF] D2 [DF]2 | E2 [Cc]2 [Dc]2 [DB]2 | A8 | %4
 [Dd]2 [DF]2 [CG]2 [CB]2 | [DA]3 [CF] D2 B2 | [DA]2 d2 F3 E | D6 [DF]2!fine! | %8
 E2 [CA]2 [DA]3 [D^G] | A4 [CA]2 [DF]2 | E2 A2 [EA]3 [D^G] | A6 [F^A]2 | [FB]3 [Ec] [Dd]2 [FB]2 | %13
 ^G4 [CA]2 [DF]2 | [CE]3 [CF] [D^G]2 [DB]2 | A8!D.C.! |] %16
V:2
 x8 | x4 D2 x2 | E2 x6 | C8 | x8 | x4 D2 (DC) | x2 (DE) (FD)CE | D6 x2 | E2 x6 | (C2 ED) x4 | %10
 E2 (CD) x4 | C2 (ED) C2 x2 | x8 | (F2 ED) x4 | x8 | C8 |] %16
V:3
 [D,A,]2 [D,A,]2 [B,,G,]2 [E,C]2 | [F,D]3 [F,A,] [B,,F,]2 (F,^G,) | A,2 [E,A,]2 [E,F,]2 [E,^G,]2 | %3
 A,8 | [F,A,]2 [D,A,]2 [E,A,]2 [G,A,]2 | [F,A,]3 [F,A,] [B,,F,]2 [E,G,]2 | A,2 (F,G,) A,3 G, | %7
 [D,F,]6 [D,A,]2 | [C,A,]2 [A,,A,]2 [B,,F,]3 E, | (A,2 CB,) [A,,A,]2 [D,A,]2 | %10
 [C,A,]2 (A,B,) [E,C]3 [E,B,] | A,2 (CB,) A,2 [F,C]2 | [F,D]3 [F,^A,] [B,,B,]2 [D,B,]2 | %13
 (B,D CB,) [F,A,]2 [D,A,]2 | [E,A,]3 [E,A,] [E,B,]2 [E,^G,]2 | A,8 |] %16
V:4
 x8 | x6 B,,2 | (C,D,) x6 | (A,6 G,2) | x8 | x8 | F,2 B,,2 (A,,2 A,,) x | x8 | x7 E, | A,,4 x4 | %10
 x2 F,2 x4 | A,,6 x2 | x8 | E,4 x4 | x8 | (A,2 G,2 F,2 E,2) |] %16

